images_Srikandi_svg/cmd/lc_dbclearquery.svg

<?xml version="1.0" encoding="UTF-8" standalone="no"?>
<svg
   xmlns:dc="http://purl.org/dc/elements/1.1/"
   xmlns:cc="http://creativecommons.org/ns#"
   xmlns:rdf="http://www.w3.org/1999/02/22-rdf-syntax-ns#"
   xmlns:svg="http://www.w3.org/2000/svg"
   xmlns="http://www.w3.org/2000/svg"
   xmlns:sodipodi="http://sodipodi.sourceforge.net/DTD/sodipodi-0.dtd"
   xmlns:inkscape="http://www.inkscape.org/namespaces/inkscape"
   height="32"
   width="32"
   version="1.1"
   id="svg65"
   sodipodi:docname="lc_dbclearquery.svg"
   inkscape:version="0.92.3 (2405546, 2018-03-11)">
  <metadata
     id="metadata71">
    <rdf:RDF>
      <cc:Work
         rdf:about="">
        <dc:format>image/svg+xml</dc:format>
        <dc:type
           rdf:resource="http://purl.org/dc/dcmitype/StillImage" />
        <dc:title></dc:title>
      </cc:Work>
    </rdf:RDF>
  </metadata>
  <defs
     id="defs69" />
  <sodipodi:namedview
     pagecolor="#ffffff"
     bordercolor="#666666"
     borderopacity="1"
     objecttolerance="10"
     gridtolerance="10"
     guidetolerance="10"
     inkscape:pageopacity="0"
     inkscape:pageshadow="2"
     inkscape:window-width="1366"
     inkscape:window-height="705"
     id="namedview67"
     showgrid="true"
     inkscape:zoom="16"
     inkscape:cx="17.76158"
     inkscape:cy="17.143508"
     inkscape:window-x="-8"
     inkscape:window-y="-8"
     inkscape:window-maximized="1"
     inkscape:current-layer="svg65"
     inkscape:snap-global="false">
    <inkscape:grid
       type="xygrid"
       id="grid878" />
  </sodipodi:namedview>
  <filter
     id="a">
    <feGaussianBlur
       stdDeviation="2.4"
       id="feGaussianBlur2" />
  </filter>
  <linearGradient
     id="b"
     gradientTransform="matrix(0.1133598,0,0,0.1691546,0.642795,-76.95463)"
     gradientUnits="userSpaceOnUse"
     x1="399.77466"
     x2="399.77466"
     y1="681.00012"
     y2="549.33234">
    <stop
       offset="0"
       stop-color="#cbcbcd"
       id="stop5" />
    <stop
       offset=".5"
       stop-color="#e0e0e2"
       id="stop7" />
    <stop
       offset="1"
       stop-color="#fff"
       id="stop9" />
  </linearGradient>
  <linearGradient
     id="c"
     gradientUnits="userSpaceOnUse"
     x1="-228.6404"
     x2="-311.9765"
     y1="149.28616"
     y2="65.950043"
     gradientTransform="matrix(0.07324148,0,0,0.07324148,30.160779,-5.021778)">
    <stop
       offset="0"
       stop-color="#bf0303"
       id="stop12" />
    <stop
       offset="1"
       stop-color="#fe9494"
       id="stop14" />
  </linearGradient>
  <g
     id="g909"
     transform="matrix(2.0054412,0,0,2.0054412,-0.0166304,-0.06316888)">
    <g
       id="g43"
       transform="scale(0.125)">
      <path
         style="fill:#9d3a9b"
         inkscape:connector-curvature="0"
         id="path19"
         d="M 7.999997,16 H 120 v 96 H 7.999997 Z" />
      <path
         style="fill:#ffffff;fill-opacity:0.756881"
         inkscape:connector-curvature="0"
         id="path21"
         d="m 78.20266,37.61897 v -2.7448 z" />
      <path
         style="fill:#f0e3ec"
         inkscape:connector-curvature="0"
         id="path23"
         d="m 8,40 h 112 v 72 H 8 Z" />
      <g
         style="fill:#cacacc"
         id="g41">
        <path
           style="fill:#f3b7d9"
           inkscape:connector-curvature="0"
           id="path25"
           d="M 15.999997,64 H 56 v 8 H 15.999997 Z" />
        <path
           style="fill:#f3b7d9"
           inkscape:connector-curvature="0"
           id="path27"
           d="M 15.999997,48 H 56 v 8 H 15.999997 Z" />
        <path
           style="fill:#f3b7d9"
           inkscape:connector-curvature="0"
           id="path29"
           d="m 72,48 h 40 v 8 H 72 Z" />
        <path
           style="fill:#f3b7d9"
           inkscape:connector-curvature="0"
           id="path31"
           d="m 72,64 h 40 v 8 H 72 Z" />
        <path
           style="fill:#f3b7d9"
           inkscape:connector-curvature="0"
           id="path33"
           d="M 15.999997,80 H 56 v 8 H 15.999997 Z" />
        <path
           style="fill:#f3b7d9"
           inkscape:connector-curvature="0"
           id="path35"
           d="m 72,80 h 40 v 8 H 72 Z" />
        <path
           style="fill:#f3b7d9"
           inkscape:connector-curvature="0"
           id="path37"
           d="M 15.999997,96 H 56 v 8 H 15.999997 Z" />
        <path
           style="fill:#f3b7d9"
           inkscape:connector-curvature="0"
           id="path39"
           d="m 72,96 h 40 v 8 H 72 Z" />
      </g>
    </g>
    <path
       style="fill:#f0e3ec;fill-rule:evenodd;stroke:#e602b4;stroke-width:0.21972445;stroke-opacity:1"
       inkscape:connector-curvature="0"
       id="path45"
       d="M 9.519389,9.0000009 6.7444451,6.225054 8.4080741,4.5614258 11.694654,7.8781011 10.60326,8.9694929 Z" />
    <path
       style="opacity:1;fill:#e602b4;fill-rule:evenodd;stroke:#e602b4;stroke-width:0.21972445;stroke-linecap:round;stroke-linejoin:round;stroke-opacity:1"
       inkscape:connector-curvature="0"
       id="path47"
       d="m 11.878812,7.7875204 -3.3651164,-3.365112 3.3651164,-3.365111 3.365109,3.365111 z" />
    <path
       style="opacity:1;fill:#f0e3ec;fill-rule:evenodd;stroke:#9d3a9b;stroke-width:0.21972445;stroke-opacity:1"
       inkscape:connector-curvature="0"
       id="path49"
       d="M 10.737043,6.7059437 9.5952745,5.5641756 13.020581,2.1388734 14.162342,3.2806411 Z" />
    <path
       d="m 11.005041,5.5447711 -0.229912,-0.2272603 0.236226,-0.2334938 0.02438,0.02411 -0.176234,0.1742005 0.07378,0.072938 0.147676,-0.1459681 0.02408,0.023802 -0.147677,0.1459673 0.08327,0.082305 0.18853,-0.1863424 0.02438,0.024107 z M 11.322689,5.2308105 11.092755,5.0035517 11.220723,4.8770636 c 0.04056,-0.040091 0.07648,-0.06596 0.107731,-0.077609 0.03144,-0.011834 0.05642,-0.00859 0.07497,0.00973 0.03064,0.030301 0.02394,0.079941 -0.02016,0.1489131 l 0.248765,-0.033063 -0.0737,0.072844 -0.217498,0.022741 -0.05598,0.055338 0.09725,0.096124 -0.05941,0.058726 m -0.06223,-0.1789575 0.01942,-0.0192 c 0.07541,-0.074536 0.09701,-0.1277244 0.0648,-0.159561 -0.02371,-0.023441 -0.06719,-0.00392 -0.130407,0.058573 l -0.03771,0.037269 z M 11.819184,4.566235 11.64807,4.539415 11.67493,4.7088153 Z m 0.151339,0.024233 -0.109687,-0.0175 -0.179097,0.1770261 0.01713,0.108976 -0.05569,0.055056 -0.06226,-0.3929918 0.05942,-0.058727 0.395021,0.06407 z m 0.214268,-0.2004253 c -0.02838,0.028047 -0.06803,0.060575 -0.118945,0.097589 l -0.0323,-0.031938 c 0.05962,-0.035181 0.10475,-0.067924 0.135409,-0.098229 0.02361,-0.023341 0.0392,-0.045395 0.04675,-0.066168 0.0077,-0.020958 0.0062,-0.03686 -0.0048,-0.047715 -0.009,-0.0089 -0.02144,-0.011774 -0.03728,-0.00861 -0.01564,0.00298 -0.04001,0.013148 -0.0731,0.030506 l -0.03831,0.019736 c -0.04718,0.02452 -0.08311,0.039257 -0.107804,0.044215 -0.02459,0.00467 -0.04348,5.127e-4 -0.05663,-0.012505 -0.01772,-0.017505 -0.02045,-0.043558 -0.0082,-0.078157 0.01211,-0.034703 0.03645,-0.070125 0.07301,-0.1062646 0.03257,-0.032185 0.06989,-0.063241 0.111971,-0.09317 l 0.02983,0.029483 c -0.0541,0.034624 -0.09209,0.062763 -0.113986,0.084409 -0.02076,0.020516 -0.03489,0.040424 -0.0424,0.059727 -0.0075,0.019301 -0.0067,0.033454 0.0024,0.042463 0.0077,0.00758 0.0194,0.00939 0.03521,0.00543 0.01579,-0.00396 0.04093,-0.014873 0.0754,-0.032761 l 0.0396,-0.020715 c 0.04785,-0.024982 0.08402,-0.03966 0.108551,-0.044035 0.02451,-0.00437 0.04381,3.662e-4 0.0579,0.01432 0.01999,0.01976 0.02243,0.049086 0.0073,0.087976 -0.01493,0.038706 -0.04476,0.080176 -0.0895,0.1244079 m 0.226756,-0.2355057 -0.22992,-0.2272596 0.236226,-0.2334931 0.02438,0.024108 -0.176234,0.1742027 0.07378,0.072938 0.147684,-0.1459688 0.02408,0.023802 -0.147669,0.1459688 0.08327,0.082306 0.188523,-0.1863432 0.02438,0.024107 z M 12.729226,3.8405802 12.499307,3.61332 12.627274,3.4868334 c 0.04056,-0.040092 0.07646,-0.065959 0.107716,-0.077609 0.03146,-0.011834 0.05643,-0.00859 0.07498,0.00974 0.03064,0.030299 0.02393,0.079939 -0.02016,0.1489124 l 0.248765,-0.033063 -0.0737,0.072844 -0.217505,0.022739 -0.05599,0.055339 0.09726,0.096124 -0.05941,0.058726 M 12.667,3.6616227 l 0.01942,-0.0192 c 0.07539,-0.074536 0.09701,-0.1277229 0.06479,-0.1595602 -0.02371,-0.023441 -0.06718,-0.00392 -0.130406,0.058573 l -0.0377,0.03727 z"
       id="path53"
       inkscape:connector-curvature="0"
       style="fill:#9d3a9b;stroke:#9d3a9b;stroke-width:0.07324148;stroke-opacity:1" />
    <path
       style="fill:#f0e3ec;fill-rule:evenodd;stroke:#e602b4;stroke-width:0.21972445;stroke-linejoin:round;stroke-opacity:1"
       inkscape:connector-curvature="0"
       id="path55"
       d="M 12.839066,0.13936929 15.874999,3.1903526 15.873754,3.7910924 15.21844,4.4360745 11.871671,1.0742558 12.839052,0.13936929 Z" />
  </g>
</svg>

<?xml version="1.0" encoding="UTF-8"?>
<svg xmlns="http://www.w3.org/2000/svg" xmlns:xlink="http://www.w3.org/1999/xlink" width="24px" height="24px" viewBox="0 0 24 24" version="1.1">
<g id="surface1">
<path style=" stroke:none;fill-rule:nonzero;fill:rgb(61.56863%,22.745098%,60.784316%);fill-opacity:1;" d="M 1.5 3 L 22.5 3 L 22.5 21 L 1.5 21 Z M 1.5 3 "/>
<path style=" stroke:none;fill-rule:nonzero;fill:rgb(94.117647%,89.019608%,92.54902%);fill-opacity:1;" d="M 1.5 7.5 L 22.5 7.5 L 22.5 21 L 1.5 21 Z M 1.5 7.5 "/>
<path style=" stroke:none;fill-rule:nonzero;fill:rgb(95.294118%,71.764708%,85.09804%);fill-opacity:1;" d="M 3 12 L 10.5 12 L 10.5 13.5 L 3 13.5 Z M 3 12 "/>
<path style=" stroke:none;fill-rule:nonzero;fill:rgb(95.294118%,71.764708%,85.09804%);fill-opacity:1;" d="M 3 9 L 10.5 9 L 10.5 10.5 L 3 10.5 Z M 3 9 "/>
<path style=" stroke:none;fill-rule:nonzero;fill:rgb(95.294118%,71.764708%,85.09804%);fill-opacity:1;" d="M 13.5 9 L 21 9 L 21 10.5 L 13.5 10.5 Z M 13.5 9 "/>
<path style=" stroke:none;fill-rule:nonzero;fill:rgb(95.294118%,71.764708%,85.09804%);fill-opacity:1;" d="M 13.5 12 L 21 12 L 21 13.5 L 13.5 13.5 Z M 13.5 12 "/>
<path style=" stroke:none;fill-rule:nonzero;fill:rgb(95.294118%,71.764708%,85.09804%);fill-opacity:1;" d="M 3 15 L 10.5 15 L 10.5 16.5 L 3 16.5 Z M 3 15 "/>
<path style=" stroke:none;fill-rule:nonzero;fill:rgb(95.294118%,71.764708%,85.09804%);fill-opacity:1;" d="M 13.5 15 L 21 15 L 21 16.5 L 13.5 16.5 Z M 13.5 15 "/>
<path style=" stroke:none;fill-rule:nonzero;fill:rgb(95.294118%,71.764708%,85.09804%);fill-opacity:1;" d="M 3 18 L 10.5 18 L 10.5 19.5 L 3 19.5 Z M 3 18 "/>
<path style=" stroke:none;fill-rule:nonzero;fill:rgb(95.294118%,71.764708%,85.09804%);fill-opacity:1;" d="M 13.5 18 L 21 18 L 21 19.5 L 13.5 19.5 Z M 13.5 18 "/>
<path style="fill-rule:evenodd;fill:rgb(94.117647%,89.019608%,92.54902%);fill-opacity:1;stroke-width:0.219724;stroke-linecap:butt;stroke-linejoin:miter;stroke:rgb(90.196079%,0.784314%,70.588237%);stroke-opacity:1;stroke-miterlimit:4;" d="M 9.518229 9 L 6.744792 6.223958 L 8.408854 4.5625 L 11.695312 7.877604 L 10.604167 8.96875 Z M 9.518229 9 " transform="matrix(1.5,0,0,1.5,0,0)"/>
<path style="fill-rule:evenodd;fill:rgb(90.196079%,0.784314%,70.588237%);fill-opacity:1;stroke-width:0.219724;stroke-linecap:round;stroke-linejoin:round;stroke:rgb(90.196079%,0.784314%,70.588237%);stroke-opacity:1;stroke-miterlimit:4;" d="M 11.877604 7.786458 L 8.513021 4.421875 L 11.877604 1.057292 L 15.244792 4.421875 Z M 11.877604 7.786458 " transform="matrix(1.5,0,0,1.5,0,0)"/>
<path style="fill-rule:evenodd;fill:rgb(94.117647%,89.019608%,92.54902%);fill-opacity:1;stroke-width:0.219724;stroke-linecap:butt;stroke-linejoin:miter;stroke:rgb(61.56863%,22.745098%,60.784316%);stroke-opacity:1;stroke-miterlimit:4;" d="M 10.736979 6.705729 L 9.596354 5.565104 L 13.020833 2.138021 L 14.161458 3.28125 Z M 10.736979 6.705729 " transform="matrix(1.5,0,0,1.5,0,0)"/>
<path style="fill-rule:nonzero;fill:rgb(61.56863%,22.745098%,60.784316%);fill-opacity:1;stroke-width:0.0732415;stroke-linecap:butt;stroke-linejoin:miter;stroke:rgb(61.56863%,22.745098%,60.784316%);stroke-opacity:1;stroke-miterlimit:4;" d="M 11.005208 5.544271 L 10.776042 5.317708 L 11.010417 5.083333 L 11.036458 5.109375 L 10.859375 5.28125 L 10.932292 5.354167 L 11.080729 5.208333 L 11.104167 5.234375 L 10.958333 5.380208 L 11.041667 5.460938 L 11.229167 5.276042 L 11.252604 5.299479 Z M 11.322917 5.231771 L 11.09375 5.002604 L 11.221354 4.877604 C 11.260417 4.835938 11.296875 4.809896 11.328125 4.799479 C 11.359375 4.786458 11.385417 4.791667 11.403646 4.809896 C 11.434896 4.838542 11.427083 4.888021 11.382812 4.958333 L 11.632812 4.924479 L 11.557292 4.997396 L 11.341146 5.020833 L 11.283854 5.075521 L 11.382812 5.171875 L 11.322917 5.231771 M 11.260417 5.052083 L 11.278646 5.033854 C 11.354167 4.958333 11.377604 4.903646 11.34375 4.872396 C 11.320312 4.848958 11.278646 4.869792 11.213542 4.932292 L 11.177083 4.96875 Z M 11.820312 4.565104 L 11.648438 4.539062 L 11.674479 4.708333 Z M 11.971354 4.591146 L 11.861979 4.572917 L 11.682292 4.75 L 11.697917 4.859375 L 11.643229 4.914062 L 11.580729 4.520833 L 11.640625 4.463542 L 12.036458 4.526042 Z M 12.184896 4.390625 C 12.15625 4.419271 12.117188 4.450521 12.065104 4.486979 L 12.033854 4.455729 C 12.09375 4.419271 12.138021 4.388021 12.169271 4.356771 C 12.192708 4.333333 12.208333 4.3125 12.216146 4.291667 C 12.223958 4.270833 12.221354 4.255208 12.210938 4.244792 C 12.203125 4.234375 12.190104 4.231771 12.174479 4.234375 C 12.158854 4.236979 12.132812 4.247396 12.101562 4.265625 L 12.0625 4.286458 C 12.015625 4.309896 11.979167 4.325521 11.953125 4.330729 C 11.929688 4.333333 11.911458 4.330729 11.898438 4.317708 C 11.880208 4.299479 11.877604 4.273438 11.890625 4.239583 C 11.901042 4.203125 11.927083 4.169271 11.963542 4.132812 C 11.994792 4.101562 12.03125 4.070312 12.075521 4.039062 L 12.104167 4.067708 C 12.049479 4.104167 12.013021 4.132812 11.989583 4.153646 C 11.96875 4.174479 11.955729 4.192708 11.947917 4.213542 C 11.940104 4.231771 11.940104 4.247396 11.950521 4.255208 C 11.958333 4.263021 11.96875 4.265625 11.984375 4.260417 C 12.002604 4.257812 12.026042 4.244792 12.059896 4.229167 L 12.101562 4.208333 C 12.148438 4.182292 12.184896 4.166667 12.208333 4.164062 C 12.234375 4.158854 12.252604 4.164062 12.268229 4.177083 C 12.286458 4.197917 12.289062 4.226562 12.273438 4.265625 C 12.260417 4.304688 12.229167 4.346354 12.184896 4.390625 M 12.411458 4.153646 L 12.182292 3.927083 L 12.416667 3.692708 L 12.442708 3.71875 L 12.265625 3.893229 L 12.341146 3.966146 L 12.486979 3.820312 L 12.510417 3.84375 L 12.364583 3.989583 L 12.447917 4.070312 L 12.635417 3.885417 L 12.658854 3.908854 Z M 12.729167 3.841146 L 12.5 3.614583 L 12.627604 3.486979 C 12.666667 3.447917 12.703125 3.421875 12.734375 3.408854 C 12.765625 3.398438 12.791667 3.401042 12.809896 3.419271 C 12.841146 3.450521 12.833333 3.5 12.789062 3.567708 L 13.039062 3.533854 L 12.966146 3.606771 L 12.747396 3.630208 L 12.690104 3.684896 L 12.789062 3.78125 L 12.729167 3.841146 M 12.666667 3.661458 L 12.6875 3.643229 C 12.763021 3.567708 12.783854 3.515625 12.75 3.481771 C 12.726562 3.458333 12.684896 3.479167 12.619792 3.541667 L 12.583333 3.578125 Z M 12.666667 3.661458 " transform="matrix(1.5,0,0,1.5,0,0)"/>
<path style="fill-rule:evenodd;fill:rgb(94.117647%,89.019608%,92.54902%);fill-opacity:1;stroke-width:0.219724;stroke-linecap:butt;stroke-linejoin:round;stroke:rgb(90.196079%,0.784314%,70.588237%);stroke-opacity:1;stroke-miterlimit:4;" d="M 12.838542 0.140625 L 15.875 3.190104 L 15.875 3.791667 L 15.21875 4.434896 L 11.872396 1.075521 Z M 12.838542 0.140625 " transform="matrix(1.5,0,0,1.5,0,0)"/>
</g>
</svg>
